X:0817
M:6/8
L:1/8
Q:3/8=116
K:D
dBd fed|cBA g3 |fed cde|dAG FED|dBd fed|cBA g3 |fed cde|d3- d3:|

